!!!COM: Bach, Johann Sebastian
!!!OTL: 224. Das walt' Gott Vater und Gott Sohn
!!!ONM: No. 224
!!!OCL: Erk
!!!SCA: BWV 290
!!!YOE: Riemenschneider, Albert
!!!OPR: 371 Harmonized Chorales and 69 Chorale Melodies with Figured Bass
!!!OPT: Bach Chorale Harmonizations
**harm	**root	**kern	**kern	**kern	**kern
!	!	!bass	!tenor	!alto	!sprno
*Iorgan	*Iorgan	*Iorgan	*Iorgan	*Iorgan	*Iorgan
*k[f#]	*k[f#]	*k[f#]	*k[f#]	*k[f#]	*k[f#]
*G:	*G:	*G:	*G:	*G:	*G:
*met(c)	*met(c)	*met(c)	*met(c)	*met(c)	*met(c)
*M4/4	*M4/4	*M4/4	*M4/4	*M4/4	*M4/4
*MM60	*MM60	*MM60	*MM60	*MM60	*MM60
I	4FF	4G	4B	4d	4g
=1	=1	=1	=1	=1	=1
I	4FF	4G	4d	4g	4b
Ib	4FF	8BB	4d	4g	4dd
.	.	8C	.	.	.
V	4CC	4D	4A	4f#	4dd
Vb/vi	4AA	4D#	4B	[4f#	4b
=2	=2	=2	=2	=2	=2
vi	4DD	4E	4B	8f#]	4g
.	.	.	.	8e	.
Vb	4CC	4F#	4A	4d	4a
I;	4FF;	4G;	4G;	4d;	4b;
I	4FF	4G	4B	4d	4g
=3	=3	=3	=3	=3	=3
I	4FF	4.G	4B	4g	4dd
Vb	4CC	.	4d	4a	4dd
.	.	8F#	.	.	.
vi	4DD	4E	4g	8b	4ee
.	.	.	.	8cc#	.
iii	4AA	8B	4f#	4dd	4ff#
.	.	8A	.	.	.
=4	=4	=4	=4	=4	=4
I	4FF	4G	4b	4.dd	8gg
.	.	.	.	.	8ff#
V/V	4GG	4A	8e	.	4ee
.	.	.	16a	8cc#	.
.	.	.	16g	.	.
V;	4CC;	4D;	4f#;	4a;	4dd;
Vb	4CC	4F#	4d	[4a	4dd
=5	=5	=5	=5	=5	=5
!!linebreak: 2
I	4FF	4G	4d	8a]	4b
.	.	.	.	16g	.
.	.	.	.	16f#	.
Ib	4FF	8BB	[4d	4g	4dd
.	.	8GG	.	.	.
IV	4BB-	4C	8d]	4g	4ee
.	.	.	[8c	.	.
I	4FF	[4G	8c]	4g	4dd
.	.	.	8B	.	.
=6	=6	=6	=6	=6	=6
V7b	4CC	8G]	4A	8a	4cc
.	.	8F#	.	8d	.
I	4FF	4G	8.B	8d	4b
.	.	.	.	[8g	.
.	.	.	16c	.	.
V;	4CC;	4D;	4d;	8g]	4a;
.	.	.	.	8f#;	.
Vb	4CC	4F#	4d	4a	4dd
=7	=7	=7	=7	=7	=7
I	4FF	4G	4d	4g	8b
.	.	.	.	.	8cc
Ib	4FF	4BB	4d	4g	4dd
IV	4BB-	4C	4e	4g	4cc
V7	4CC	4D	8d	4f#	8b
.	.	.	8c	.	8a
=8	=8	=8	=8	=8	=8
vi	4DD	4E	8B	16e	4g
.	.	.	.	16f#	.
.	.	.	16A	4g	.
.	.	.	16G	.	.
V	4CC	4D	8.d	.	4a
.	.	.	.	8f#	.
.	.	.	16c	.	.
I;	4FF;	4G;	4B;	4d;	4g;
==	==	==	==	==	==
*-	*-	*-	*-	*-	*-
!!!CDT: 1685/3//-1750/7/28
!!!OCY: Deutschland
!!!AGN: chorale
!!!AST: Baroque
!!!AIN: vox
!!!YOY: 1941
!!!PPP: New York; London
!!!PPR: G. Schirmer
!!!ENC: David Huron
!!!EED: David Huron
!!!YEN: United States of America
!!!YER: 1992
!!!YEC: Copyright 1992 David Huron
!!!YEM: Rights to all derivative electronic formats reserved.
!!!YER: March 20, 1996
!!!AMT: simple quadruple
!!!EEV: 1.1
!!chor2scor: -l 2 -s 0.6 -o %b.pmx
